icons/ui_zoom_in_fill.svg

<svg width="48" height="48" viewBox="0 0 48 48" fill="none" xmlns="http://www.w3.org/2000/svg">
<path d="M28 16V20H32V22H28V26H26V22H22V20H26V16H28Z" fill="black"/>
<path fill-rule="evenodd" clip-rule="evenodd" d="M42 21C42 29.2843 35.2843 36 27 36C23.2615 36 19.8423 34.6323 17.2157 32.37L15.8702 33.7155L15.7122 35.1161L8.82843 41.9998L6 39.1714L12.9266 32.2448L14.6318 32.1255L15.7901 30.9671C13.4324 28.3173 12 24.8259 12 21C12 12.7157 18.7157 6 27 6C35.2843 6 42 12.7157 42 21ZM40 21C40 28.1797 34.1797 34 27 34C19.8203 34 14 28.1797 14 21C14 13.8203 19.8203 8 27 8C34.1797 8 40 13.8203 40 21Z" fill="black"/>
</svg>

<svg
  xmlns="http://www.w3.org/2000/svg"
  width="24"
  height="24"
  viewBox="0 0 24 24"
  fill="none"
  stroke="currentColor"
  stroke-width="2"
  stroke-linecap="round"
  stroke-linejoin="round"
>
  <path d="M28 16v4h4v2h-4v4h-2v-4h-4v-2h4v-4z" />
  <path
    fill-rule="evenodd"
    d="M42 21c0 8.284-6.716 15-15 15a14.94 14.94 0 0 1-9.784-3.63l-1.346 1.346-.158 1.4L8.828 42 6 39.17l6.927-6.926 1.705-.12 1.158-1.158A14.94 14.94 0 0 1 12 21c0-8.284 6.716-15 15-15s15 6.716 15 15m-2 0c0 7.18-5.82 13-13 13s-13-5.82-13-13S19.82 8 27 8s13 5.82 13 13"
    clip-rule="evenodd"
  />
</svg>
